X: 1
T: Kathleen Marie
M: 4/4
L: 1/8
R: reel
K: Gmaj
G3A GEDE|G2Bd edBd|g2bg efge|dBGB AGED|
~G3A GEDE|G2Bd edBd|g2bg efge|dBAB G2z2:|
|:~g3a gedg|eaag a2ga|bgaf gfed|egga ged2|
egga gedg|eaag a2ga|bgaf gedB|AGAB G2z2:|
